client/public/images/logo-4.svg

<svg height="41" viewBox="0 0 9 41" width="9" xmlns="http://www.w3.org/2000/svg"><path d="m3.42861597 28.0516952v-3.0864532c0-2.2042658-.91828384-2.5900349-2.69372167-2.6450588v-22.3201832h5.81635437v22.3201832c-1.71464203.0550239-2.63259182.440793-2.63259182 2.6450588v3.0864532zm-3.42861597 7.8254292c0-1.9838693 1.46945456-3.3062483 3.67346939-3.3062483 2.20434886 0 3.67346939 1.322379 3.67346939 3.3062483 0 1.929146-1.46912053 3.3065491-3.67346939 3.3065491-2.20401483 0-3.67346939-1.3774031-3.67346939-3.3065491z" fill-rule="evenodd" transform="translate(.653061 .428571)"/></svg>

<?xml version="1.0" encoding="UTF-8"?>
<svg width="9px" height="41px" viewBox="0 0 9 41" version="1.1" xmlns="http://www.w3.org/2000/svg" xmlns:xlink="http://www.w3.org/1999/xlink">
    <title>Fill 31</title>
    <g id="Page-1" stroke="none" stroke-width="1" fill="none" fill-rule="evenodd">
        <g id="Fill-31" transform="translate(0.653061, 0.428571)" fill="#000000">
            <path d="M3.42861597,28.0516952 L3.42861597,24.965242 C3.42861597,22.7609762 2.51033213,22.3752071 0.734894303,22.3201832 L0.734894303,8.8817842e-14 L6.55124867,8.8817842e-14 L6.55124867,22.3201832 C4.83660664,22.3752071 3.91865685,22.7609762 3.91865685,24.965242 L3.91865685,28.0516952 L3.42861597,28.0516952 Z M7.14983628e-14,35.8771244 C7.14983628e-14,33.8932551 1.46945456,32.5708761 3.67346939,32.5708761 C5.87781825,32.5708761 7.34693878,33.8932551 7.34693878,35.8771244 C7.34693878,37.8062704 5.87781825,39.1836735 3.67346939,39.1836735 C1.46945456,39.1836735 7.14983628e-14,37.8062704 7.14983628e-14,35.8771244 L7.14983628e-14,35.8771244 Z" id="Fill-30"></path>
        </g>
    </g>
</svg>
